symbols/web/dashboard/materialsymbolsoutlined/dashboard_wght100grad200fill1_40px.svg

<svg xmlns="http://www.w3.org/2000/svg" height="40" width="40"><path d="M22.708 15.083V6.292h11v8.791Zm-16.375 5V6.292h11.625v13.791Zm16.375 13.584V19.875h11v13.792Zm-16.375 0v-8.792h11.625v8.792Z"/></svg>

<svg xmlns="http://www.w3.org/2000/svg" height="40" width="40"><path d="M22.708 15.083V6.292H33.708V15.083ZM6.333 20.083V6.292H17.958V20.083ZM22.708 33.667V19.875H33.708V33.667ZM6.333 33.667V24.875H17.958V33.667Z"/></svg>
